src/lib/packages/icons/src/assets/filled/sort-descending.svg

<svg width="24" height="24" viewBox="0 0 24 24" fill="none" xmlns="http://www.w3.org/2000/svg">
<path d="M20 7H4C3.447 7 3 6.552 3 6C3 5.448 3.447 5 4 5H20C20.553 5 21 5.448 21 6C21 6.552 20.553 7 20 7ZM18 12C18 11.448 17.553 11 17 11H7C6.447 11 6 11.448 6 12C6 12.552 6.447 13 7 13H17C17.553 13 18 12.552 18 12ZM15 18C15 17.448 14.553 17 14 17H10C9.447 17 9 17.448 9 18C9 18.552 9.447 19 10 19H14C14.553 19 15 18.552 15 18Z" fill="currentColor"/>
</svg>

<svg xmlns="http://www.w3.org/2000/svg" width="24" height="24" fill="none"><path fill="currentColor" d="M20 7H4a1 1 0 1 1 0-2h16a1 1 0 1 1 0 2Zm-2 5a1 1 0 0 0-1-1H7a1 1 0 1 0 0 2h10a1 1 0 0 0 1-1Zm-3 6a1 1 0 0 0-1-1h-4a1 1 0 1 0 0 2h4a1 1 0 0 0 1-1Z"/></svg>
